X: 4401
T: Bonard, The
R: slide
M: 12/8
K: Dmajor
|:F2B BAB d2B BAB|gfe fed e2d cBA|F2B BAB d2B BAB|FGA GFE D3D2E:|
|:FEF d2F GFG d2G|FEF def e2d cBA|FEF d2F GFG d2e|fed cde d2A BAG:|

